X: 40245
T: Tír Rafartaigh
R: slip jig
M: 9/8
K: Dmajor
G2B BAG ABc|d2g gfd BcA|G2B BAG ABc|A2d ded BcA|
G2B BAG ABc|d2g gfd BcA|G2B BAG ABc|A2d dgd fga||
b2a bge dgb|a2a aga bgd|e2e edB ABc|d2d dgd fga|
b2g gba ged|e2e ede gdB|A2A ABG ABc|d2d dgf dcA||

